dist/img/zoom.svg

<svg width="72" height="72" viewBox="0 0 72 72" fill="none" xmlns="http://www.w3.org/2000/svg">
<circle cx="35.8569" cy="35.8569" r="34.3569" stroke="white" stroke-width="3"/>
<path d="M28.9801 34.83H34.6501V28.65H37.0501V34.83H42.7201V37.2H37.0501V43.41H34.6501V37.2H28.9801V34.83Z" fill="white"/>
</svg>

<svg width="72" height="72" viewBox="0 0 72 72" xmlns="http://www.w3.org/2000/svg" fill="none"><circle cx="35.857" cy="35.857" r="34.357" stroke="#fff" stroke-width="3"/><path d="M28.98 34.83h5.67v-6.18h2.4v6.18h5.67v2.37h-5.67v6.21h-2.4v-6.21h-5.67v-2.37z" fill="#fff"/></svg>
